X: 27
T:Convenience, The
R:Reel
O:Ireland
M:4/4
L:1/8
Z: amalgamated version by Alf 
K:D
dABA dABA|GAFA EADA|dABA dABA|FAEA D4:|
|:df f/f/f dfed|cAce gecA|df f/f/f dfed|[1 cABc d4:|[2 cABc defg||
~a3f gfed|Ae~e2 Ae~e2|a3f gfed|Adce d2fg|
aA A/A/A aA A/A/A|gA A/A/A gA A/A/A|~f3f gfed|Addc defg||
aAgA fAeA|Ae e/e/e Ae e/e/e|aAgA fAeA|Addc defg|
aA A/A/A A/A/A/ A/A/A|gA A/A/A A/A/A A/A/A|f2af gbag|fdec d4|]
